!!!!SEGMENT: pl-wn--mus-iii-161-476_wieniawski-henryk--fantaisie-orientale-op-24.krn
!!!cenid: 18xx:3800
!!!COM: Wieniawski, Henryk
!!!COM-rismID: pe137176
!!!CDT: 1835/07/10-1880/03/31
!!!CNT:
!!!OTL: Fantaisie orientale op. 24
!!!PDT:
!!!AGN:
!!!SMS-siglum: PL-Wn
!!!SMS-shelfmark: Mus.III.161.476
!!!SMS-shelfwork: W
!!!SMS-variant: Violon.: PL-Wn Mus.III.161.476:4-9
!!!SMS-altvar: Violon.: PL-Wn Mus.III.161.476:12-13
!!!NIFC-rismSourceID:
!!!NIFC-islandoraID:
!!!URL-pdf-islandora:
!!!URL-scan: https://polona.pl/item/fantaisie-orientale-pour-violon-avec-accompagnement-de-piano-op-24-posth,MTA4MDQwOTM1/0 @EN{Scan on Polona} @PL{Skany w portalu Polona}
!!!ONB-nifc: UWAGA: na podstawie partytury (SMS:variant), partia skrzypiec do SMS:altvar
!!!AIN: 2 piano 1 violn
!!!key: a
!!!OMD: A MONSIEUR JENÖ HUBAY.\nFANTAISIE ORIENTALE.
**kern	**kern	**dynam	**kern	**dynam
!	!	!	!LO:MO:mod=*	!
*	*	*	*scale:70%	*
*part3	*part2	*part2	*part1	*part1
*staff3	*staff2	*	*staff1	*
*I"PIANO.	*I"PIANO.	*	*I"Violon.	*
*mI"Pianoforte	*mI"Pianoforte	*	*mI"Violino	*
*I'	*I'	*	*I'	*
*mI'pf	*mI'pf	*	*mI'vn	*
*Ipiano	*Ipiano	*	*Ivioln	*
*ICklav	*ICklav	*	*ICstr	*
*IGacmp	*IGacmp	*	*IGsolo	*
*clefF4	*clefG2	*	*clefG2	*
*k[]	*k[]	*	*k[]	*
*a:	*a:	*	*a:	*
*M4/4	*M4/4	*	*M4/4	*
*met(c)	*met(c)	*	*met(c)	*
*mmet(c)	*mmet(c)	*	*mmet(c)	*
=1	=1	=1	=1	=1
!	!LO:TX:a:B:t=Moderato.	!	!LO:TX:a:B:t=Moderato.	!
[4e\	[4ee\	p	1r	.
8.e\L]	8.ee\L]	.	.	.
!LO:TUP:a	!LO:TUP:a	!	!	!
(48d#X\LL	(48dd#X\LL	.	.	.
48c\	48cc\	.	.	.
48d#\JJJ	48dd#\JJJ	.	.	.
8c\)	8cc\)	.	.	.
8r	8r	.	.	.
4r	4r	.	.	.
=2	=2	=2	=2	=2
[4E\	[4e/	p	1r	.
8.E\L]	8.e/L]	.	.	.
!LO:TUP:a	!LO:TUP:b	!	!	!
(48D#X\LL	(48d#X/LL	.	.	.
48C\	48c/	.	.	.
48D#\JJJ	48d#/JJJ	.	.	.
8C/)	8c/)	.	.	.
8r	8r	.	.	.
4r	4r	.	.	.
*	*clefF4	*	*	*
=3	=3	=3	=3	=3
*^	*	*	*	*
1C	2FF\	1c 1A 1F	.	1r	.
.	2EE\	.	.	.	.
=4	=4	=4	=4	=4	=4
*	*	*^	*	*	*
1D 1DD	2BB-X\	1f 1F	2B-X\	.	1r	.
.	2GG#X\	.	2Bn\	.	.	.
*v	*v	*	*	*	*	*
!!LO:LB:g=original
=5	=5	=5	=5	=5	=5
2C 2AA 2CC/	1e 1E	2c\	.	1r	.
2BBn 2BBBn/	.	2d 2G#X\	.	.	.
*	*v	*v	*	*	*
=6	=6	=6	=6	=6
2AA 2AAA/	2e 2c 2A 2E\	.	1r	.
2D#X 2AA/	2f#X 2c 2F#X\	.	.	.
*	*clefG2	*	*	*
=7	=7	=7	=7	=7
*ped	*	*	*	*
4E 4BB 4EE;/	4g#X 4B 4G#X/	.	4r;	.
!	!	!	!LO:MO:mod=!LO&colon;TX&colon;B&colon;t=poco piu animato	!
!	!	!	!LO:TX:b:i:t=poco più animato	!
4r;	4r;	.	[4bbb;\	.
2r	2r	.	8bbb\L]	.
.	.	.	(16aaa\L	.
.	.	.	16ggg#X\JJ	.
.	.	.	16fffn\LL	.
.	.	.	16eee\	.
.	.	.	16ddd\	.
.	.	.	16ccc\JJ)	.
=8	=8	=8	=8	=8
1r	1r	.	(16ccc\LL	.
.	.	.	16bb\	.
.	.	.	16fff\	.
.	.	.	16ccc#X\JJ	.
.	.	.	16eee\LL	.
.	.	.	16ddd\	.
.	.	.	16bb\	.
.	.	.	16aa\JJ)	.
.	.	.	(16aa\LL	.
.	.	.	16gg#X\	.
.	.	.	16bb\	.
.	.	.	16dd\JJ	.
.	.	.	16ggn\LL	.
.	.	.	16ff\	.
.	.	.	16dd\	.
.	.	.	16b\JJ)	.
!!LO:LB:g=original
=9	=9	=9	=9	=9
1r	1r	.	(16a\LL	.
.	.	.	16g#X\	.
.	.	.	16ff\	.
.	.	.	16cc#X\JJ	.
.	.	.	16ee\LL	.
.	.	.	16dd\	.
.	.	.	16b\	.
.	.	.	16a\JJ)	.
.	.	.	(16a/LL	.
.	.	.	16g#X/	.
.	.	.	16b/	.
.	.	.	16d/JJ	.
.	.	.	16gn/LL	.
.	.	.	16f/	.
.	.	.	16d/	.
.	.	.	16B/JJ)	.
=10	=10	=10	=10	=10
1r	1r	.	(12A/L	.
.	.	.	12.G#X/	.
.	.	.	24dd/Jk)	.
.	.	.	[4dd\	.
.	.	.	16dd/LL]	.
.	.	.	(<16G#X/	.
.	.	.	16B/	.
.	.	.	16d/JJ	.
.	.	.	16f/LL	.
.	.	.	16e/	.
.	.	.	16d#X/	.
.	.	.	16e/JJ	.
=11	=11	=11	=11	=11
1r;	1r;	.	16g#X\LL	.
.	.	.	16b\	.
.	.	.	16dd\	.
.	.	.	16ff\JJ	.
.	.	.	(12ees$Ss\L)	.
.	.	.	12dd#X\	.
.	.	.	12ee\J)	.
.	.	.	4eee;\	.
.	.	.	4r	.
!!LO:PB:g=original
=12||	=12||	=12||	=12||	=12||
*M2/4	*M2/4	*	*M2/4	*
*ped	*	*	*	*
!	!LO:TX:a:B:t=Andante.	!LO:DY:b=2:rj	!LO:TX:a:B:t=Andante.	!
(<16AAA\LL	4r	sf	4r	.
16EE\J	.	.	.	.
[<8AAA\J	.	.	.	.
4AAA\])	4e< 4c< 4A< 4E</	p	(8dd#X^^\L	.
.	.	.	8ee\J)	.
=13	=13	=13	=13	=13
(16AAA/LL	4r	sf	4ee\	.
16EE/J	.	.	.	.
[8AAA/J	.	.	.	.
4AAA/])	4a 4e 4c 4A/	p	4ee\	.
=14	=14	=14	=14	=14
*ped	*	*	*	*
((16AAA/LL	4r	.	(16ff\LL	.
16DD/J)	.	.	16ee\	.
[8AAA/J	.	.	16ff\	.
.	.	.	16aa\JJ)	.
4AAA/])	4b 4a 4d 4B/	.	(16aa\LL	.
.	.	.	16gg#X\)	.
.	.	.	(16gg#\	.
.	.	.	16ff\JJ)	.
=15	=15	=15	=15	=15
((16AAA/LL	4r	.	(32ff\LLL	.
.	.	.	32ee\	.
16EE/J)	.	.	32ff\	.
.	.	.	32gg#X\J	.
[8AAA/J	.	.	16ff\)	.
.	.	.	16ee'\JJ	.
4AAA/])	4cc 4a 4e 4c/	.	8ee\	.
.	.	.	8r	.
=16	=16	=16	=16	=16
2F\	4d< 4A</	.	4r	.
.	4Bn< 4A-X</	.	(8ddn^^\L	.
.	.	.	8ee\J)	.
!!LO:PB:g=original
=17	=17	=17	=17	=17
8E\	8g 8G/	.	(8dd\L	.
8r	8r	.	8cc\J	.
4E\	8g/L	p	(32ggn\LLL	.
.	.	.	32ff\	.
.	.	.	32gg\	.
.	.	.	32aa\J	.
.	8ccJ 8c/	.	16gg\)	.
.	.	.	16ff'\JJ)	.
=18	=18	=18	=18	=18
4F\	8a/L	.	(32ff\LLL	.
.	.	.	32ee\	.
.	.	.	32ff\	.
.	.	.	32gg\J	.
.	8ccJ 8c/	.	16ff\)	.
.	.	.	16ee'\JJ	.
4G\	8g/L	.	(32ee\LLL	.
.	.	.	32dd\	.
.	.	.	32ee\	.
.	.	.	32ff\J	.
.	8ccJ 8c/	.	16ee\)	.
.	.	.	16dd'\JJ	.
=19	=19	=19	=19	=19
4A-X\	8f/L	.	(16dd\LL	.
.	.	.	16cc\	.
!	!LO:MO:mod=!LO&colon;TX&colon;B&colon;b&colon;t=rit.	!	!	!
!	!LO:TX:b:Bi:t=rit.	!	!	!
.	8ddJ 8d/	.	16dd\)	.
!	!	!	!LO:MO:mod=!LO&colon;TX&colon;B&colon;b&colon;t=rit.	!
!	!	!	!LO:TX:b:i:t=rit.	!
.	.	.	16ff'\JJ	.
8BL 8G#X\	8eeL 8e\	.	16ee'\LL	.
.	.	.	(16dd^\	.
8dJ 8B 8E\	8gg#XJ 8g#X\	.	16cc^\	.
.	.	.	16b^\JJ)	.
=20	=20	=20	=20	=20
!	!	!	!LO:MO:mod=!LO&colon;TX&colon;B&colon;t=a tempo	!
!	!	!	!LO:TX:a:i:t=a tempo	!
16c: 16E: 16AAn:\	16aa: 16a:\	.	8a/	.
16r	(16c/LL	.	.	.
8r	16d/	.	8r	.
.	16f/JJ	.	.	.
!	!	!	!LO:TX:b:t=cre_scen_do:problem:dynamics with extention lines:mod=	!LO:HP:t=cre_scen_do
4r	16e/LL	.	(16ee^^\LL	<
.	16d/	.	16ff\	.
.	16c/	.	16ee\	.
.	16B/JJ)	.	16dd#X\JJ)	.
=21	=21	=21	=21	=21
*ped	*	*	*	*
(16AAA/LL	16A/	sf	(8.ee\L	[
16EE/J	16r	.	.	.
[8AAA/J	8r	.	.	.
!	!	!	!LO:TUP:a	!
.	.	.	48dd#X\LL	>
.	.	.	48cc\	.
.	.	.	48dd#\JJJ)	.
4AAA/])	8.e/L	.	8cc\	]
.	.	.	8r	.
!	!LO:TUP:b:problem:klamra łukowa	!	!	!
.	48d#X/LL	.	.	.
.	48c/	.	.	.
.	48d#/JJJ	.	.	.
!!LO:LB:g=original
=22	=22	=22	=22	=22
16r	4cc 4c^/	.	(8..dd#X^\L	.
(32FFn^>/LLL	.	.	.	.
32AA/JJJ	.	.	.	.
8FF/)	.	.	.	.
.	.	.	64cc\LLL	.
.	.	.	64dd#\JJJJ)	.
16r	4cc 4c^/	.	(8..ee^\L	.
(32EE^>/LLL	.	.	.	.
32AA/JJJ	.	.	.	.
8EE/)	.	.	.	.
.	.	.	64dd#\LLL	.
.	.	.	64ee\JJJJ)	.
=23	=23	=23	=23	=23
16r	4cc 4c^/	.	(8..ff^\L	.
(32DD#X/LLL	.	.	.	.
32AA/JJJ	.	.	.	.
8DD#/)	.	.	.	.
.	.	.	64ee\LLL	.
.	.	.	64ff\JJJJ)	.
4BB 4DDn/	(8..f/L	.	(16gg#X\KL	.
.	.	.	8aa\	.
.	.	.	16bb\Jk)	.
.	64e/LLL	.	.	.
.	64f/JJJJ)	.	.	.
=24	=24	=24	=24	=24
[2BB [2EE/	(16g#X/KL	.	(16gg#X\LL	.
.	8a/	.	16ff\)	.
.	.	.	(16ff\	.
.	16b/Jk)	.	16ee\JJ)	.
.	(16g#/LL	.	(16ee\LL	.
.	16f/)	.	16ff\	.
.	(16f/	.	16gg#\	.
.	16e/JJ)	.	16aa\JJ)	.
=25	=25	=25	=25	=25
!	!LO:MO:mod=!LO&colon;TX&colon;B&colon;b&colon;t=appasionato	!	!LO:MO:mod=!LO&colon;TX&colon;B&colon;b&colon;t=appasionato	!
!	!null	!	!LO:TX:b:i:t=appassionato	!
4BB] 4EE/]	(16e/LL	.	8.bb\L	.
.	16f/	.	.	.
.	16g#X/	.	.	.
.	16a/JJ)	.	16aa\Jk	.
4r	8.b/L	.	(16ddd\LL	.
.	.	.	16ccc\)	.
.	.	.	(16bb\	.
.	16a/Jk	.	16aa\JJ)	.
=26	=26	=26	=26	=26
*	*^	*	*	*
4r	16dd/LL	4fn\	.	(8.gg#X\L	.
.	16cc/	.	.	.	.
.	16b/	.	.	.	.
.	16a/JJ	.	.	16ff\Jk)	.
(8E\L	8g#X/L	4d\	.	(32ff\LLL	.
.	.	.	.	32ee\	.
.	.	.	.	32ff\	.
.	.	.	.	32gg#\J	.
8G#X\J)	8b/J	.	.	16ff\)	.
.	.	.	.	16ee'\JJ	.
!!LO:LB:g=original
=27	=27	=27	=27	=27	=27
[4A\	[4a/	(32d\LLL	.	2ee\	.
.	.	32c\	.	.	.
.	.	32d\	.	.	.
.	.	32e\J	.	.	.
.	.	16d\	.	.	.
.	.	16c\JJ	.	.	.
8A\]	8a/]	8c\)	.	.	.
8r	8re	8rg	.	.	.
*	*v	*v	*	*	*
=28	=28	=28	=28	=28
*ped	*	*	*	*
(16CC/LL	4r	ff	4r	.
!LO:MO:mod=!LO&colon;TX&colon;B&colon;t=vigoroso	!	!	!	!
!LO:TX:a:i:t=vigoroso	!	!	!	!
16GG/J)	.	.	.	.
[8CC/J	.	.	.	.
!	!	!	!LO:MO:mod=!LO&colon;TX&colon;B&colon;b&colon;t=vigoroso	!
!	!	!	!LO:TX:b:i:t=vigoroso	!LO:DY:rj
4CC/]	4g 4e 4G/	.	(8.eeL 8.cc^^\	f
.	.	f	16ggJk 16ee\)	.
=29	=29	=29	=29	=29
(16CC/LL	4r	.	(16ggLL 16ee\	.
16GG/J)	.	.	16aa 16ee\	.
[8CC/J	.	.	16gg 16ee\	.
.	.	.	16ff\JJ)	.
4CC/]	4ee 4cc 4g 4e/	f	4gg 4ee\	.
=30	=30	=30	=30	=30
(16CC/LL	4r	.	8r	.
16AA/J)	.	.	.	.
[8CC/J	.	.	(16ffLL 16a\	.
.	.	.	16ggJJ 16cc\	.
4CC/_	4a 4c 4A/	f	32aaLLL 32ff\	.
.	.	.	32bb-XJ 32gg\	.
.	.	.	16aa 16ff\)	.
.	.	.	16gg 16ee'\	.
.	.	.	16ffJJ 16dd'\	.
=31	=31	=31	=31	=31
8CC/]	8g 8c 8G/	.	(16ffLL 16dd^\	.
.	.	.	16ee 16cc\)	.
8r	8r	.	(16ee 16cc^\	.
.	.	.	16ddJJ 16g\)	.
!	!	!	!	!LO:DY:rj
4BB^>/	8d/L	f	(32ggLLL 32bn 32d 32G/	ff
.	.	.	32ff/	.
.	.	.	32gg/	.
.	.	.	32aa/J)	.
.	8gJ 8G/	.	16gg'/	.
.	.	.	16ffJJ 16dd'/	.
!!LO:LB:g=original
=32	=32	=32	=32	=32
4C^>/	8e/L	.	16eeLL 16cc/	.
.	.	.	16ddJ 16g/	.
.	8gJ 8G/	.	8ccJ 8e/	.
4D^\	8fL 8B/	.	(32ggLLL 32b 32d 32G^/	.
.	.	.	32ff/	.
.	.	.	32gg/	.
.	.	.	32aa/J)	.
.	8gJ 8G/	.	16gg'/	.
.	.	.	16ffJJ 16dd'/	.
=33	=33	=33	=33	=33
4E^\	8c/L	.	(8.ffL 8.cc\	.
.	8gJ 8G/	.	.	.
.	.	.	16eeJk 16cc\)	.
4GG#X^\	8B/L	.	(16ee\LL 16ee	.
.	.	.	16ff 16ee\	.
.	8eJ 8E</	.	16ee\ 16ee	.
.	.	.	16ffJJ 16ee\)	.
=34	=34	=34	=34	=34
4AA\	8A</L	.	(16eeLL 16dd\	.
.	.	.	16ee\ 16ee	.
.	8e<J 8E</	.	16ee 16dd\	.
.	.	.	16eeJJ 16cc\)	.
!	!LO:TX:t=P:problem:mixed beam	!	!	!
4FF\	8d<L 8A</	.	(16ddLL 16d/	.
.	.	.	16ff 16d/	.
.	8a\J	.	16ee 16e/	.
.	.	.	16ddJJ 16f/)	.
=35	=35	=35	=35	=35
*^	*	*	*	*
2E/	2EE\	8e/L	.	(16ddLL 16e/	.
.	.	.	.	16cc 16e/)	.
.	.	8ddJ 8f/	.	(16cc 16d/	.
.	.	.	.	16bJJ 16d/)	.
!	!	!LO:MO:mod=!LO&colon;TX&colon;B&colon;b&colon;t=ritenuto	!	!LO:MO:mod=!LO&colon;TX&colon;B&colon;b&colon;t=ritenuto	!
!	!	!LO:TX:b:i:t=riten.	!	!LO:TX:b:i:t=riten.	!
.	.	8ccL 8e/	.	(16bLL 16c/	.
.	.	.	.	16a 16c/)	.
.	.	8bJ 8d/	.	(16a 16B/	.
.	.	.	.	16g#XJJ 16B/)	.
*v	*v	*	*	*	*
=36	=36	=36	=36	=36
*ped	*	*	*	*
!	!	!	!LO:MO:mod=!LO&colon;TX&colon;B&colon;b&colon;a&colon;t=a tempo	!
!	!	!	!LO:TX:a:i:t=a tempo	!
(16AA/LL	8a 8c/	.	8a 8c/	.
16E/J	.	.	.	.
!	!	!	!LO:MO:mod=!LO&colon;TX&colon;B&colon;b&colon;t=sentimentale	!
!	!	!	!LO:TX:b:i:t=sentimentale	!
[8AA/J	8r	.	8r	.
8AA/])	4r	.	(8g#X^^/L	.
8r	.	.	8a/J)	.
!!LO:PB:g=original
=37	=37	=37	=37	=37
!	!	!LO:DY:rj	!	!
2E 2AA^>/	4f 4d 4B 4G#X/	sf	(8b\L	.
.	.	.	32dd\LL	.
.	.	.	32cc\	.
.	.	.	32b\	.
.	.	.	32cc\JJJ)	.
.	4e 4c 4A/	.	(8a\L	.
.	.	.	16ee\L	.
.	.	.	16dd\JJ)	.
=38	=38	=38	=38	=38
!	!	!	!LO:MO:mod=!LO&colon;TX&colon;B&colon;a&colon;t=rit.	!
!	!	!	!LO:TX:b:i:t=rit.	!
2F 2AA/	[4a 4d [4A/	.	(16dd^\LL	.
!LO:MO:mod=!LO&colon;TX&colon;B&colon;a&colon;t=rit.	!	!	!	!
!LO:TX:a:i:t=rit.	!	!	!	!
.	.	.	16cc\)	.
.	.	.	(16cc^\	.
.	.	.	16b\JJ)	.
.	8a]L 8d#X 8A/]	.	(32b\LLL	.
.	.	.	32a\	.
.	.	.	32b\	.
.	.	.	32cc\J)	.
.	8bJ 8B/	.	16b'\	.
.	.	.	16a'\JJ	.
=39	=39	=39	=39	=39
8G#X: 8BB: 8EE:/	8b: 8e: 8B:/	.	(8.g#X/L	.
8r	8r	.	.	.
!	!	!	!LO:TUP:b	!
.	.	.	48f/LL	.
.	.	.	48e/	.
.	.	.	48f/JJJ)	.
4r	(8.g#X/L	.	8e/	.
.	.	.	8r	.
!	!LO:TUP:b	!	!	!
.	48f/LL	.	.	.
.	48e/	.	.	.
.	48f/JJJ)	.	.	.
=40	=40	=40	=40	=40
!	!	!	!LO:MO:mod=!LO&colon;TX&colon;B&colon;t=Sul G	!
!	!	!	!LO:TX:a:t=sul sol.	!
4E\	4e/	.	(8.e/L	.
.	.	.	16f/Jk)	.
[4Dn\	[4dn/	.	(8g#X/L	.
.	.	.	16f/L	.
.	.	.	16e/JJ)	.
!!LO:LB:g=original
=41	=41	=41	=41	=41
8D\L]	8d/L]	.	(32b/LLL	.
.	.	.	32a/	.
.	.	.	32b/	.
.	.	.	32cc/J	.
8E\J	8e/J	.	16b/	.
.	.	.	16a/JJ)	.
8C\L	8c/L	.	(32a/LLL	.
.	.	.	32g#X/	.
.	.	.	32a/	.
.	.	.	32b/J	.
8E\J	8e/J	.	16a/	.
.	.	.	16g#/JJ)	.
=42	=42	=42	=42	=42
8BB\L	8B/L	.	(32g#X/LLL	.
.	.	.	32f/	.
.	.	.	32g#/	.
.	.	.	32a/J	.
8E\J	8e/J	.	16g#/	.
.	.	.	16f/JJ)	.
8AA\L	8A/L	.	(32f/LLL	.
.	.	.	32e/	.
.	.	.	32f/	.
.	.	.	32g#/J	.
8E\J	8e/J	.	16f/	.
.	.	.	16e/JJ)	.
=43	=43	=43	=43	=43
(32EE\LLL	(32E</LLL	.	[4e/	.
32DD#X\	32D#X</	.	.	.
32EE\	32E</	.	.	.
32FF\J	32F</J	.	.	.
16EE\	16E</	.	.	.
16DD#\JJ	16D#</JJ	.	.	.
8EE\)	8E</)	.	8.e/]	.
8r	8r<	.	.	.
.	.	.	16r	.
=44	=44	=44	=44	=44
*tremolo	*	*	*	*
*ped	*	*	*	*
(32AAA/LLL	2r	.	4r	.
32EE/	.	.	.	.
32AAA/	.	.	.	.
32EE/	.	.	.	.
32AAA/	.	.	.	.
32EE/	.	.	.	.
32AAA/	.	.	.	.
32EE/	.	.	.	.
32AAA/	.	.	(8dd#X^^\L	p
32EE/	.	.	.	.
32AAA/	.	.	.	.
32EE/	.	.	.	.
32AAA/	.	.	8ee\J)	.
32EE/	.	.	.	.
32AAA/	.	.	.	.
32EE/JJJ)	.	.	.	.
=45	=45	=45	=45	=45
(32AAA/LLL	4r	.	4ee\	.
32EE/	.	.	.	.
32AAA/	.	.	.	.
32EE/	.	.	.	.
32AAA/	.	.	.	.
32EE/	.	.	.	.
32AAA/	.	.	.	.
32EE/	.	.	.	.
32AAA/	(8g#X/L	p	4ee\	.
32EE/	.	.	.	.
32AAA/	.	.	.	.
32EE/	.	.	.	.
32AAA/	8a/J)	.	.	.
32EE/	.	.	.	.
32AAA/	.	.	.	.
32EE/JJJ)	.	.	.	.
!!LO:LB:g=original
=46	=46	=46	=46	=46
(32AAA/LLL	4a/	.	(16ff\LL	.
32DD/	.	.	.	.
32AAA/	.	.	16ee\	.
32DD/	.	.	.	.
32AAA/	.	.	16ff\	.
32DD/	.	.	.	.
32AAA/	.	.	16aa\JJ)	.
32DD/	.	.	.	.
32AAA/	4a/	.	(16aa\LL	.
32DD/	.	.	.	.
32AAA/	.	.	16gg#X\)	.
32DD/	.	.	.	.
32AAA/	.	.	(16gg#\	.
32DD/	.	.	.	.
32AAA/	.	.	16ff\JJ)	.
32DD/JJJ)	.	.	.	.
=47	=47	=47	=47	=47
(32AAA/LLL	(16b\LL	.	(32ff\LLL	.
32GG#X/	.	.	32ee\	.
32AAA/	16a\	.	32ff\	.
32GG#X/	.	.	32gg#X\J	.
32AAA/	16b\	.	16ff\	.
32GG#X/	.	.	.	.
32AAA/	16dd\JJ)	.	16ee\JJ)	.
32GG#X/	.	.	.	.
32AAA/	(16dd\LL	.	8ee\	.
32GG#X/	.	.	.	.
32AAA/	16cc\)	.	.	.
32GG#X/	.	.	.	.
32AAA/	(16cc\	.	8r	.
32GG#X/	.	.	.	.
32AAA/	16b\JJ)	.	.	.
32GG#X/JJJ)	.	.	.	.
=48	=48	=48	=48	=48
(32AAA/LLL	8a 8e 8c/	.	(8.ee\L	.
32AA/	.	.	.	.
32AAA/	.	.	.	.
32AA/	.	.	.	.
32AAA/	8r	.	.	.
32AA/	.	.	.	.
!	!	!	!LO:TUP:a	!
32AAA/	.	.	48dd#X\LL	.
.	.	.	48cc\	.
32AA/	.	.	.	.
.	.	.	48dd#\JJJ)	.
32AAA/	(8.ee\L	.	8cc\	.
32AA/	.	.	.	.
32AAA/	.	.	.	.
32AA/	.	.	.	.
32AAA/	.	.	8r	.
32AA/	.	.	.	.
!	!LO:TUP:a	!	!	!
32AAA/	48dd#X\LL	.	.	.
.	48cc\	.	.	.
32AA/JJJ)	.	.	.	.
.	48dd#\JJJ)	.	.	.
=49	=49	=49	=49	=49
(32AAA/LLL	8cc\	.	(8.e/L	.
32AA/	.	.	.	.
32AAA/	.	.	.	.
32AA/	.	.	.	.
32AAA/	8r	.	.	.
32AA/	.	.	.	.
!	!	!	!LO:TUP:b	!
32AAA/	.	.	48d#X/LL	.
.	.	.	48c/	.
32AA/	.	.	.	.
.	.	.	48d#/JJJ)	.
32AAA/	(8.e/L	.	8c/	.
32AA/	.	.	.	.
32AAA/	.	.	.	.
32AA/	.	.	.	.
32AAA/	.	.	8r	.
32AA/	.	.	.	.
!	!LO:TUP:b	!	!	!
32AAA/	48d#X/LL	.	.	.
.	48c/	.	.	.
32AA/JJJ)	.	.	.	.
.	48d#/JJJ)	.	.	.
!!LO:LB:g=original
=50	=50	=50	=50	=50
(32AAA/LLL	8c/	.	(16A/LL	.
32AA/	.	.	.	.
32AAA/	.	.	16B/	.
32AA/	.	.	.	.
32AAA/	8r	.	16c/	.
32AA/	.	.	.	.
32AAA/	.	.	16d#X/JJ	.
32AA/	.	.	.	.
32AAA/	4r	.	16e/LL	.
32AA/	.	.	.	.
32AAA/	.	.	16fn/	.
32AA/	.	.	.	.
32AAA/	.	.	16g#X/	.
32AA/	.	.	.	.
32AAA/	.	.	16a/JJ	.
32AA/JJJ)	.	.	.	.
=51	=51	=51	=51	=51
(32AAA/LLL	4r	.	16b\LL	.
32AA/	.	.	.	.
32AAA/	.	.	16ccn\	.
32AA/	.	.	.	.
32AAA/	.	.	16dd#X\	.
32AA/	.	.	.	.
32AAA/	.	.	16ee\JJ	.
32AA/	.	.	.	.
!	!LO:MO:mod=!LO&colon;TX&colon;B&colon;b&colon;t=ritardando	!	!LO:MO:mod=!LO&colon;TX&colon;B&colon;b&colon;t=ritardando	!
!	!LO:TX:b:i:t=ritard.	!	!LO:TX:b:i:t=ritard.	!
32AAA/	16r	.	16ffn\LL	.
32AA/	.	.	.	.
32AAA/	(16f/LL	.	16gg#X\	.
32AA/	.	.	.	.
32AAA/	16e/	.	16aa\	.
32AA/	.	.	.	.
32AAA/	16c/JJ)	.	16eee\JJ)	.
32AA/JJJ)	.	.	.	.
*Xtremolo	*	*	*	*
=52||	=52||	=52||	=52||	=52||
!	!LO:TX:a:B:t=Allegro moderato.	!	!LO:TX:a:B:t=Allegro moderato.	!
4AAA;/	4A;/	.	4aaa;\	.
4r	4r	.	4r	.
=53	=53	=53	=53	=53
(8qD#X/	(8qd#X/	p	.	.
!LO:S:s=1:note:problem:note-level slur	!LO:S:s=1:note:problem:note-level slur	!	!	!
2E) 2AA^>/	2e) 2A/	.	2r	.
=54	=54	=54	=54	=54
(8qD#X/	(8qd#X/	.	.	.
!LO:S:s=1:note:problem:note-level slur	!LO:S:s=1:note:problem:note-level slur	!	!	!
2E) 2AA^>/	2e) 2A/	.	2r	.
=55	=55	=55	=55	=55
(8qD#X/	(8qd#X/	.	.	.
!LO:S:s=1:note:problem:note-level slur	!LO:S:s=1:note:problem:note-level slur	!	!	!
2E) 2AA^>/	2e) 2A/	.	2r	.
!!LO:PB:g=original
=56	=56	=56	=56	=56
!	!	!	!LO:MO:mod=!LO&colon;TX&colon;B&colon;t=Sul G	!
!	!	!	!LO:TX:a:t=sul sol.	!
2r	2aa 2ff 2dd#X 2cc\	p	(16f/LL	.
.	.	.	32e/K)	.
.	.	.	32r	.
.	.	.	(16f/	.
.	.	.	32a/JJk)	.
.	.	.	32r	.
.	.	.	(16a/LL	.
.	.	.	32g#X/K)	.
.	.	.	32r	.
.	.	.	(16g#/	.
.	.	.	32f/JJk)	.
.	.	.	32r	.
=57	=57	=57	=57	=57
!	!	!	!LO:TUP:b	!
4e 4A\	4ccc 4aa 4ee 4cc\	p	(24f/LL	.
.	.	.	24e/	.
.	.	.	24f/	.
.	.	.	24g#X/	.
.	.	.	24f/	.
.	.	.	24e/JJ)	.
4r	4r	.	8e/	.
.	.	.	8r	.
=58	=58	=58	=58	=58
2r	2c [2A/	.	(16e/LL	.
.	.	.	32d#X/K)	.
.	.	.	32r	.
.	.	.	(16d#/	.
.	.	.	32f/JJk)	.
.	.	.	32r	.
.	.	.	(16f/LL	.
.	.	.	32e/K)	.
.	.	.	32r	.
.	.	.	(16e/	.
.	.	.	32c/JJk)	.
.	.	.	32r	.
=59	=59	=59	=59	=59
*	*^	*	*	*
!	!	!	!	!LO:TUP:b	!
[4E\	[4e (4A/]	4rcyy	.	(24c/LL	.
.	.	.	.	24B/	.
.	.	.	.	24c/	.
.	.	.	.	24d#X/	.
.	.	.	.	24c/	.
.	.	.	.	24B/JJ)	.
8E\]	8e/]	8G#X\)	.	8B/	.
8r	8re	8rg	.	8r	.
*	*v	*v	*	*	*
!!LO:LB:g=original
=60	=60	=60	=60	=60
2r	2aa 2ff 2dd#X 2cc\	.	(16f/LL	.
.	.	.	32e/K)	.
.	.	.	32r	.
.	.	.	(16f/	.
.	.	.	32a/JJk)	.
.	.	.	32r	.
.	.	.	(16a/LL	.
.	.	.	32g#X/K)	.
.	.	.	32r	.
.	.	.	(16g#/	.
.	.	.	32f/JJk)	.
.	.	.	32r	.
=61	=61	=61	=61	=61
!	!	!	!LO:TUP:b	!
4a 4c 4A\	4ccc 4aa 4cc\	.	(24f/LL	.
.	.	.	24e/	.
.	.	.	24f/	.
.	.	.	24g#X/	.
.	.	.	24f/	.
.	.	.	24e/JJ)	.
4r	4r	.	8e/	.
.	.	.	8r	.
=62	=62	=62	=62	=62
8r	8r	.	(16e/LL	.
.	.	.	16f/)	.
8E'\L	8e'/L	.	16g#X/	.
.	.	.	16a/JJ	.
8B'\J	8b'/J	.	16b/LL	.
.	.	.	16a/	.
8B'\L	8b'\L	.	16g#/	.
.	.	.	16f/JJ	.
=63	=63	=63	=63	=63
8e'\J	8ee'\J	.	8e/L	.
*clefG2	*	*	*	*
.	.	.	(8qf/	.
8e'/L	8ee'\L	.	16e/L)	.
.	.	.	16d#X/JJ	.
8ee'/J	8eee'\J	.	8e/	.
8r	8r	.	8r	.
*clefF4	*	*	*	*
!!LO:LB:g=original
=64	=64	=64	=64	=64
[2d [2A\	2a 2f/	p	(16ff\LL	.
.	.	.	16ee\)	.
.	.	.	(16ff\	.
.	.	.	16aa\JJ)	.
.	.	.	(16aa\LL	.
.	.	.	32gg#X\K)	.
.	.	.	32r	.
.	.	.	(16gg#\	.
.	.	.	32ff\JJk)	.
.	.	.	32r	.
=65	=65	=65	=65	=65
!	!	!	!LO:TUP:a	!
2d] 2A\]	2b 2g#X/	.	(24ff\LL	.
.	.	.	24ee\	.
.	.	.	24ff\	.
.	.	.	24gg#X\	.
.	.	.	24ff\	.
.	.	.	24ee\JJ)	.
.	.	.	8ee\	.
.	.	.	8r	.
=66	=66	=66	=66	=66
*	*^	*	*	*
8c 8A\	8cc 8a\	4rcyy	.	(16ee\LL	.
.	.	.	.	16dd#X\)	.
8r	8r	.	.	(16dd#\	.
.	.	.	.	16ff\JJ)	.
4r	4re	[4A\	.	(16ff\LL	.
.	.	.	.	32ee\K)	.
.	.	.	.	32r	.
.	.	.	.	(16ee\	.
.	.	.	.	32cc\JJk)	.
.	.	.	.	32r	.
=67	=67	=67	=67	=67	=67
!	!	!	!	!LO:TUP:a	!
[4E\	[4e/	(4A\]	.	(24cc\LL	.
.	.	.	.	24b\	.
.	.	.	.	24cc\	.
.	.	.	.	24dd#X\	.
.	.	.	.	24cc\	.
.	.	.	.	24b\JJ)	.
8E\]	8e/]	8G#X\)	.	8b\	.
8r	8re	8re	.	8r	.
*	*v	*v	*	*	*
!!LO:LB:g=original
=68	=68	=68	=68	=68
2d 2A\	2a 2f/	.	(16ff\LL	.
.	.	.	16ee\)	.
.	.	.	(16ff\	.
.	.	.	16aa\JJ)	.
.	.	.	(16aa\LL	.
.	.	.	32gg#X\K)	.
.	.	.	32r	.
.	.	.	(16gg#\	.
.	.	.	32ff\JJk)	.
.	.	.	32r	.
=69	=69	=69	=69	=69
!	!	!	!LO:TUP:a	!
2E\	2b 2g#X 2d/	.	(24ff\LL	.
.	.	.	24ee\	.
.	.	.	24ff\	.
.	.	.	24gg#X\	.
.	.	.	24ff\	.
.	.	.	24ee\JJ)	.
.	.	.	8ee\	.
.	.	.	8r	.
=70	=70	=70	=70	=70
8r	8r	.	(16ee\LL	.
.	.	.	16ff\)	.
8E'\L	8e'/L	p	16gg#X\	.
.	.	.	16aa\JJ	.
8B'\J	8b'/J	.	16bb\LL	.
.	.	.	16aa\	.
8B'\L	8b'\L	.	16gg#\	.
.	.	.	16ff\JJ	.
=71	=71	=71	=71	=71
8e'\J	8ee'\J	.	8ee\L	.
*clefG2	*	*	*	*
.	.	.	(16qqee/LL	.
.	.	.	16qqff/JJ	.
8e'/L	8ee'\L	.	16ee\L)	.
.	.	.	16dd#X\JJ	.
8ee'/J	8eee'\J	.	8ee\	.
8r	8r	.	8r	.
*clefF4	*	*	*	*
!!LO:PB:g=original
=72	=72	=72	=72	=72
!	!LO:MO:mod=!LO&colon;TX&colon;B&colon;t=vigoroso	!	!	!
!	!LO:TX:b:i:t=vigoroso	!LO:DY:rj	!	!
8CL 8GG 8CC/	8gL 8e 8c 8G/	f	8cc 8e 8G/	.
8CJ 8GG 8CC/	8gJ 8e 8c 8G/	.	8r	.
!	!	!	!LO:MO:mod=!LO&colon;TX&colon;B&colon;t=vigoroso	!
!	!	!	!LO:TX:b:i:t=vigoroso	!LO:DY:rj
8r	8r	.	(8.eeL 8.cc\	f
8C 8GG 8CC/	8g 8e 8c 8G/	.	.	.
.	.	.	16ggJk 16ee\)	.
=73	=73	=73	=73	=73
8CL 8GG 8CC/	8gL 8e 8c 8G/	.	(16ggLL 16ee\	.
.	.	.	16aa 16ee\	.
8CJ 8GG 8CC/	8gJ 8e 8c 8G/	.	16gg 16ee\)	.
.	.	.	16ffJJ 16ee'\	.
8r	8r	.	8gg 8ee\	.
8C 8GG 8CC/	8g 8e 8c 8G/	.	8r	.
=74	=74	=74	=74	=74
8CL 8FF 8CC/	8aL 8f 8c 8A/	.	8r	.
8CJ 8FF 8CC/	8aJ 8f 8c 8A/	.	(16ffLL 16a\	.
.	.	.	16ggJJ 16a\	.
8r	8r	.	32aaLLL 32a\	.
.	.	.	32bb-XJ 32a\	.
.	.	.	16aa 16a\	.
8C 8FF 8CC/	8a 8f 8c 8A/	.	16gg 16a\	.
.	.	.	16ffJJ 16a\)	.
=75	=75	=75	=75	=75
8CL 8GG 8CC/	8gL 8e 8c 8G/	.	8ee 8cc\	.
8CJ 8GG 8CC/	8gJ 8e 8c 8G/	.	8r	.
!	!	!	!LO:TUP:b	!
8r	8r	.	(24ggLL 24bn 24d 24G/	.
.	.	.	24ff/	.
.	.	.	24gg/	.
8GG 8GGG/	8g 8d 8B 8G/	.	24aa/	.
.	.	.	24gg/	.
.	.	.	24ff/JJ)	.
=76	=76	=76	=76	=76
8CL 8GG 8CC/	8gL 8e 8c 8G/	.	8ee 8cc\	.
8CJ 8GG 8CC/	8gJ 8e 8c 8G/	.	8r	.
!	!	!	!LO:TUP:b	!
8r	8r	.	(24ggLL 24b 24d 24G/	.
.	.	.	24ff/	.
.	.	.	24gg/	.
8G 8GG/	8gg 8dd 8b 8g\	.	24aa/	.
.	.	.	24gg/	.
.	.	.	24ff/JJ)	.
!!LO:LB:g=original
=77	=77	=77	=77	=77
8CL 8GG 8CC/	8ggL 8ee 8cc 8g\	.	8ee 8cc\	.
8CJ 8GG 8CC/	8ggJ 8ee 8cc 8g\	.	8r	.
!	!	!	!LO:TUP:a	!
8r	8r	.	(24ee\LL 24ee	.
.	.	.	24ee 24dd#X\	.
.	.	.	24ee\ 24ee	.
8E 8EE/	8ee 8g#X 8e/	.	24ff 24ee\	.
.	.	.	24ee\ 24ee	.
.	.	.	24eeJJ 24dd#\)	.
=78	=78	=78	=78	=78
!	!	!	!LO:TUP:a	!
8AL 8D#X 8AA\	8ffL 8a 8f\	.	(24eeLL 24cc\	.
.	.	.	24ee 24b\	.
.	.	.	24ee 24cc\	.
8AJ 8D# 8AA\	8ffJ 8a 8f\	.	24ee 24dd#X\	.
.	.	.	24ee 24cc\	.
.	.	.	24eeJJ 24a\)	.
!	!	!	!LO:TUP:a	!
8r	8r	.	(24eeLL 24cc\	.
.	.	.	24ee 24b\	.
.	.	.	24ee 24cc\	.
8A 8D# 8AA\	8aa 8ff 8cc 8a\	.	24ee 24dd#\	.
.	.	.	24ee 24cc\	.
.	.	.	24eeJJ 24a\)	.
=79	=79	=79	=79	=79
*tremolo	*	*	*tremolo	*
!	!	!	!LO:MO:mod=!LO&colon;TX&colon;B&colon;t=tremolo	!
!	!	!	!LO:TX:a:i:t=tremolo	!
32EEE/LLL	8gg#X 8ee 8b 8g#X\	ff	32ee\LLL 32ee	ff
32EE/	.	.	32ee\ 32ee	.
32EEE/	.	.	32ee\ 32ee	.
32EE/	.	.	32ee\ 32ee	.
32EEE/	8eL 8B 8G#X/	.	32ee\ 32ee	.
32EE/	.	.	32ee\ 32ee	.
32EEE/	.	.	32ee\ 32ee	.
32EE/	.	.	32ee\ 32ee	.
!	!LO:TX:b:t=cre_scen_do:problem:dynamics with extention lines:mod=	!LO:HP:t=cre_scen_do	!LO:TX:b:t=cre_scen_do:problem:dynamics with extention lines:mod=	!LO:HP:t=cre_scen_do
32EEE/	8f 8c 8A/	<	32ff 32ee\	<
32EE/	.	.	32ff 32ee\	.
32EEE/	.	.	32ff 32ee\	.
32EE/	.	.	32ff 32ee\	.
32EEE/	8eJ 8B 8G#/	.	32ee\ 32ee	.
32EE/	.	.	32ee\ 32ee	.
32EEE/	.	.	32ee\ 32ee	.
32EE/JJJ	.	.	32ee\JJJ 32ee	.
=80	=80	=80	=80	=80
32EEE/LLL	8fL 8c 8A/	.	32ffLLL 32ee\	.
32EE/	.	.	32ff 32ee\	.
32EEE/	.	.	32ff 32ee\	.
32EE/	.	.	32ff 32ee\	.
32EEE/	8f#X 8c#X 8A#X/	.	32ff#X 32ee\	.
32EE/	.	.	32ff# 32ee\	.
32EEE/	.	.	32ff# 32ee\	.
32EE/	.	.	32ff# 32ee\	.
32EEE/	8gn 8d 8B/	.	32gg 32ee\	.
32EE/	.	.	32gg 32ee\	.
32EEE/	.	.	32gg 32ee\	.
32EE/	.	.	32gg 32ee\	.
32EEE/	8f#J 8c# 8A#/	.	32ff# 32ee\	.
32EE/	.	.	32ff# 32ee\	.
32EEE/	.	.	32ff# 32ee\	.
32EE/JJJ	.	.	32ff#JJJ 32ee\	.
=81	=81	=81	=81	=81
32EEE/LLL	8gL 8d 8B/	.	32ggLLL 32ee\	.
32EE/	.	.	32gg 32ee\	.
32EEE/	.	.	32gg 32ee\	.
32EE/	.	.	32gg 32ee\	.
32EEE/	8g#X 8d 8B/	.	32gg#X 32ee\	.
32EE/	.	.	32gg# 32ee\	.
32EEE/	.	.	32gg# 32ee\	.
32EE/	.	.	32gg# 32ee\	.
32EEE/	8a 8e-X 8cn/	.	32aa 32ee\	.
32EE/	.	.	32aa 32ee\	.
32EEE/	.	.	32aa 32ee\	.
32EE/	.	.	32aa 32ee\	.
32EEE/	8g#J 8d 8B/	[	32gg# 32ee\	[
32EE/	.	.	32gg# 32ee\	.
32EEE/	.	.	32gg# 32ee\	.
32EE/JJJ	.	.	32gg#JJJ 32ee\	.
!!LO:LB:g=original
=82	=82	=82	=82	=82
32EEE/LLL	8aL 8e-X 8cn/	.	32aaLLL 32ee\	.
32EE/	.	.	32aa 32ee\	.
32EEE/	.	.	32aa 32ee\	.
32EE/	.	.	32aa 32ee\	.
32EEE/	8a#X 8en 8c#X/	.	32aa#X 32ee\	.
32EE/	.	.	32aa# 32ee\	.
32EEE/	.	.	32aa# 32ee\	.
32EE/	.	.	32aa# 32ee\	.
32EEE/	8b 8e 8d/	.	32bb 32ee\	.
32EE/	.	.	32bb 32ee\	.
32EEE/	.	.	32bb 32ee\	.
32EE/	.	.	32bb 32ee\	.
32EEE/	8eeJ 8e/	.	32eee 32ee\	.
32EE/	.	.	32eee 32ee\	.
32EEE/	.	.	32eee 32ee\	.
32EE/JJJ	.	.	32eeeJJJ 32ee\	.
*Xtremolo	*	*	*Xtremolo	*
=83	=83	=83	=83	=83
8CL 8GG 8CC/	8gnL 8e 8c 8G/	.	8cc 8e 8G/	.
8CJ 8GG 8CC/	8gJ 8e 8c 8G/	.	8r	.
8r	8r	.	(8.eeL 8.cc\	.
8C 8GG 8CC/	8g 8e 8c 8G/	.	.	.
.	.	.	16ggJk 16ee\)	.
=84	=84	=84	=84	=84
8CL 8GG 8CC/	8gL 8e 8c 8G/	.	(16ggLL 16ee\	.
.	.	.	16aa 16ee\	.
8CJ 8GG 8CC/	8gJ 8e 8c 8G/	.	16gg 16ee\)	.
.	.	.	16ffJJ 16ee'\	.
8r	8r	.	8gg 8ee\	.
8C 8GG 8CC/	8g 8e 8c 8G/	.	8r	.
=85	=85	=85	=85	=85
8CL 8FF 8CC/	8aL 8f 8c 8A/	.	8r	.
8CJ 8FF 8CC/	8aJ 8f 8c 8A/	.	(16ffLL 16a\	.
.	.	.	16ggJJ 16a\	.
8r	8r	.	32aaLLL 32a\	.
.	.	.	32bb-XJ 32a\	.
.	.	.	16aa 16a\	.
8C 8FF 8CC/	8a 8f 8c 8A/	.	16gg 16a\	.
.	.	.	16ffJJ 16a\)	.
=86	=86	=86	=86	=86
8CL 8GG 8CC/	8gL 8e 8c 8G/	.	8ee 8cc\	.
8CJ 8GG 8CC/	8gJ 8e 8c 8G/	.	8r	.
!	!	!	!LO:TUP:b	!
8r	8r	.	(24ggLL 24bn 24d 24G/	.
.	.	.	24ff/	.
.	.	.	24gg/	.
8GG 8GGG/	8g 8d 8B 8G/	.	24aa/	.
.	.	.	24gg/	.
.	.	.	24ff/JJ)	.
!!LO:PB:g=original
=87	=87	=87	=87	=87
8CL 8GG 8CC/	8gL 8e 8c 8G/	.	8ee 8cc\	.
8CJ 8GG 8CC/	8gJ 8e 8c 8G/	.	8r	.
!	!	!	!LO:TUP:b	!
8r	8r	.	(24ggLL 24b 24d 24G/	.
.	.	.	24ff/	.
.	.	.	24gg/	.
8G 8GG/	8gg 8dd 8b 8g\	.	24aa/	.
.	.	.	24gg/	.
.	.	.	24ff/JJ)	.
=88	=88	=88	=88	=88
8CL 8GG 8CC/	8ggL 8ee 8cc 8g\	.	8ee 8cc\	.
8CJ 8GG 8CC/	8ggJ 8ee 8cc 8g\	.	8r	.
!	!	!	!LO:TUP:a	!
8r	8r	.	(24ee\LL 24ee	.
.	.	.	24ee 24dd#X\	.
.	.	.	24ee\ 24ee	.
8E 8EE/	8ee 8g#X 8e/	.	24ff 24ee\	.
.	.	.	24ee\ 24ee	.
.	.	.	24eeJJ 24dd#\)	.
=89	=89	=89	=89	=89
!	!	!	!LO:TUP:a	!
8AL 8D#X 8AA\	8ffL 8a 8f\	.	(24eeLL 24cc\	.
.	.	.	24ee 24b\	.
.	.	.	24ee 24cc\	.
8AJ 8D# 8AA\	8ffJ 8a 8f\	.	24ee 24dd#X\	.
.	.	.	24ee 24cc\	.
.	.	.	24eeJJ 24a\)	.
!	!	!	!LO:TUP:a	!
8r	8r	.	(24eeLL 24cc\	.
.	.	.	24ee 24b\	.
.	.	.	24ee 24cc\	.
8A 8D# 8AA\	8aa 8ff 8cc 8a\	.	24ee 24dd#\	.
.	.	.	24ee 24cc\	.
.	.	.	24eeJJ 24a\)	.
=90	=90	=90	=90	=90
*tremolo	*	*	*	*
32EEE/LLL	8gg#X 8ee 8b 8g#X\	.	4eet\ 4ee	.
32EE/	.	.	.	.
32EEE/	.	.	.	.
32EE/	.	.	.	.
32EEE/	8r	.	.	.
32EE/	.	.	.	.
32EEE/	.	.	.	.
32EE/	.	.	.	.
32EEE/	4r	.	4eet\ 4ee	.
32EE/	.	.	.	.
32EEE/	.	.	.	.
32EE/	.	.	.	.
32EEE/	.	.	.	.
32EE/	.	.	.	.
32EEE/	.	.	.	.
32EE/JJJ	.	.	.	.
=91	=91	=91	=91	=91
32EEE/LLL	2r	.	4eet\ 4ee	.
32EE/	.	.	.	.
32EEE/	.	.	.	.
32EE/	.	.	.	.
32EEE/	.	.	.	.
32EE/	.	.	.	.
32EEE/	.	.	.	.
32EE/	.	.	.	.
32EEE/	.	.	4eet\ 4ee	.
32EE/	.	.	.	.
32EEE/	.	.	.	.
32EE/	.	.	.	.
32EEE/	.	.	.	.
32EE/	.	.	.	.
32EEE/	.	.	.	.
32EE/JJJ	.	.	.	.
*Xtremolo	*	*	*	*
!!LO:PB:g=original
=92	=92	=92	=92	=92
*	*	*	*^	*
*ped	*	*	*	*	*
2EE 2AAA/	2e 2A/	.	16ff/LL	2ee\	.
.	.	.	16ee/	.	.
.	.	.	16ff/	.	.
.	.	.	16aa/JJ	.	.
.	.	.	16aa/LL	.	.
.	.	.	16gg#X/	.	.
.	.	.	16gg#/	.	.
.	.	.	16ff/JJ	.	.
=93	=93	=93	=93	=93	=93
2EE 2AAA/	2e 2A/	.	24ff/LL	2ee\	.
.	.	.	24ee/	.	.
.	.	.	24ff/	.	.
.	.	.	24gg#X/	.	.
.	.	.	24ff/	.	.
.	.	.	24ee/JJ	.	.
.	.	.	8ee/	.	.
.	.	.	8rg	.	.
=94	=94	=94	=94	=94	=94
2EE 2AAA/	2e 2A/	.	16ee/LL	2ee\	.
.	.	.	16dd#X/	.	.
.	.	.	16dd#/	.	.
.	.	.	16ff/JJ	.	.
.	.	.	16ff/LL	.	.
.	.	.	16ee/	.	.
.	.	.	16ee/	.	.
.	.	.	16cc/JJ	.	.
=95	=95	=95	=95	=95	=95
2EE 2AAA/	2e 2A/	.	24cc/LL	2ee\	.
.	.	.	24b/	.	.
.	.	.	24cc/	.	.
.	.	.	24dd#X/	.	.
.	.	.	24cc/	.	.
.	.	.	24b/JJ	.	.
.	.	.	8b/	.	.
.	.	.	8rg	.	.
=96	=96	=96	=96	=96	=96
2EE 2AAA/	2e 2A/	.	16ff/LL	2ee\	.
.	.	.	16ee/	.	.
.	.	.	16ff/	.	.
.	.	.	16aa/JJ	.	.
.	.	.	16aa/LL	.	.
.	.	.	16gg#X/	.	.
.	.	.	16gg#/	.	.
.	.	.	16ff/JJ	.	.
!!LO:LB:g=original
=97	=97	=97	=97	=97	=97
2EE 2AAA/	2e 2A/	.	24ff/LL	2ee\	.
.	.	.	24ee/	.	.
.	.	.	24ff/	.	.
.	.	.	24gg#X/	.	.
.	.	.	24ff/	.	.
.	.	.	24ee/JJ	.	.
.	.	.	8ee/	.	.
.	.	.	8rg	.	.
=98	=98	=98	=98	=98	=98
(8qDD#X/	(8qd#X/	.	.	.	.
!LO:S:s=1:note:problem:note-level slur	!LO:S:s=1:note:problem:note-level slur	!	!	!	!
4EE) 4EEE/	4e) 4E/	.	16ee/LL	2ee\	.
.	.	.	16ff/	.	.
.	.	.	16gg#X/	.	.
.	.	.	16aa/JJ	.	.
(8qDD#/	(8qd#/	.	.	.	.
!LO:S:s=1:note:problem:note-level slur	!LO:S:s=1:note:problem:note-level slur	!	!	!	!
4EE) 4EEE/	4e) 4E/	.	16bb/LL	.	.
.	.	.	16aa/	.	.
.	.	.	16gg#/	.	.
.	.	.	16ff/JJ	.	.
=99	=99	=99	=99	=99	=99
(8qDD#X/	(8qd#X/	.	.	.	.
!LO:S:s=1:note:problem:note-level slur	!LO:S:s=1:note:problem:note-level slur	!	!	!	!
4EE) 4EEE/	4e) 4E/	.	16ee/LL	2ee\	.
.	.	.	16ff/	.	.
.	.	.	16dd/	.	.
.	.	.	16ee/JJ	.	.
(8qDD#/	(8qd#/	.	.	.	.
!LO:S:s=1:note:problem:note-level slur	!LO:S:s=1:note:problem:note-level slur	!	!	!	!
4EE) 4EEE/	4e) 4E/	.	16cc/LL	.	.
.	.	.	16dd/	.	.
.	.	.	16b/	.	.
.	.	.	16ee/JJ	.	.
*	*	*	*v	*v	*
=100	=100	=100	=100	=100
*ped	*	*	*	*
8C 8AA 8EE/	8f 8d#X 8c 8A/	.	8aa\L	.
*clefG2	*	*	*	*
8a/	8aa\	.	16bb\L	.
.	.	.	16ccc\JJ	.
8cc/L	8ccc\L	.	16ddd#XLL 16a^\	.
.	.	.	16ccc 16a\	.
8f/J	8ff\J	.	16bb 16a\	.
.	.	.	16aaJJ 16a\	.
=101	=101	=101	=101	=101
8a/	8aa\L	.	16ddd#XLL 16a^\	.
.	.	.	16ccc 16a\	.
*clefF4	*	*	*	*
8d#X\	8dd#X\J	.	16bb 16a\	.
.	.	.	16aaJJ 16a\	.
8f\L	8ff\L	.	16ddd#LL 16a^\	.
.	.	.	16ccc 16a\	.
8c\J	8cc\J	.	16bb 16a\	.
.	.	.	16aaJJ 16a\	.
!!LO:LB:g=original
=102	=102	=102	=102	=102
8d#X\L	8dd#X\L	.	16ddd#XLL 16a^\	.
.	.	.	16ccc 16a\	.
8A\J	8a\J	.	16bb 16a\	.
.	.	.	16aaJJ 16a\	.
8c\L	8cc/L	.	16ddd#LL 16a^\	.
.	.	.	16ccc 16a\	.
8F\J	8f/J	.	16bb 16a\	.
.	.	.	16aaJJ 16a\	.
=103	=103	=103	=103	=103
8E\L	8e/L	.	8eeee\L	.
8cJ 8A 8E\	8ccJ 8a 8e/	.	8aaJ 8cc 8e\	.
8dL 8B 8E\	8bL 8g#X 8e/	.	8gg#XL 8b 8e\	.
8G#XJ 8E\	8ddJ 8b 8e/	.	8bbJ 8dd 8e\	.
=104	=104	=104	=104	=104
*ped	*	*	*	*
8C 8AA 8EE/	8ccL 8a 8f 8d#X\	.	8aaL 8cc 8e 8A/	.
*clefG2	*	*	*	*
8a/	8aa\J	.	16bb/L	.
.	.	.	16ccc/JJ	.
8cc/L	8ccc\L	.	16ddd#XLL 16a^\	.
.	.	.	16ccc 16a\	.
8f/J	8ff\J	.	16bb 16aT\	.
.	.	.	16aaJJ 16a\	.
=105	=105	=105	=105	=105
8a/	8aa\L	.	16ddd#XLL 16a^\	.
.	.	.	16ccc 16a\	.
*clefF4	*	*	*	*
8d#X\	8dd#X\J	.	16bb 16a\	.
.	.	.	16aaJJ 16a\	.
8f\L	8ff\L	.	16ddd#LL 16a^\	.
.	.	.	16ccc 16a\	.
8c\J	8cc\J	.	16bb 16aT\	.
.	.	.	16aaJJ 16a\	.
=106	=106	=106	=106	=106
8d#X\L	8dd#X\L	.	16ddd#XLL 16a^\	.
.	.	.	16ccc 16a\	.
8A\J	8a\J	.	16bb 16a\	.
.	.	.	16aaJJ 16a\	.
8c\L	8cc/L	.	16ddd#LL 16a^\	.
.	.	.	16ccc 16a\	.
8F\J	8f/J	.	16bb 16aT\	.
.	.	.	16aaJJ 16a\	.
!!LO:LB:g=original
=107	=107	=107	=107	=107
8E\L	8e/L	.	8eeee\L	.
8cJ 8A 8E\	8ccJ 8a 8e/	.	8aaJ 8cc 8e\	.
8dL 8B 8E\	8bL 8g#X 8e/	.	8gg#XL 8b 8e\	.
8BJ 8G#X 8E\	8ddJ 8b 8g# 8e/	.	8bbJ 8dd 8e\	.
=108	=108	=108	=108	=108
*tremolo	*	*	*	*
*ped	*	*	*	*
32AAA/LLL	4cc 4a 4f 4d#X/	.	2aa 2aT\	.
32FF/	.	.	.	.
32AAA/	.	.	.	.
32FF/	.	.	.	.
32AAA/	.	.	.	.
32FF/	.	.	.	.
32AAA/	.	.	.	.
32FF/	.	.	.	.
32AAA/	8r	.	.	.
32FF/	.	.	.	.
32AAA/	.	.	.	.
32FF/	.	.	.	.
!	!LO:TUP:a:problem:klamra łukowa	!	!	!
32AAA/	24ddd#X\LL	f	.	.
32FF/	.	.	.	.
.	24ccc\	.	.	.
32AAA/	.	.	.	.
.	24ddd#\JJ	.	.	.
32FF/JJJ	.	.	.	.
=109	=109	=109	=109	=109
32AAA/LLL	8ccc\	.	2aa 2aT\	.
32FF/	.	.	.	.
32AAA/	.	.	.	.
32FF/	.	.	.	.
32AAA/	8r	.	.	.
32FF/	.	.	.	.
32AAA/	.	.	.	.
32FF/	.	.	.	.
32AAA/	8r	.	.	.
32FF/	.	.	.	.
32AAA/	.	.	.	.
32FF/	.	.	.	.
!	!LO:TUP:a:problem:klamra łukowa	!	!	!
32AAA/	24dd#X\LL	.	.	.
32FF/	.	.	.	.
.	24cc\	.	.	.
32AAA/	.	.	.	.
.	24dd#\JJ	.	.	.
32FF/JJJ	.	.	.	.
=110	=110	=110	=110	=110
32AAA/LLL	8cc\	.	2aa 2aT\	.
32FF/	.	.	.	.
32AAA/	.	.	.	.
32FF/	.	.	.	.
32AAA/	8r	.	.	.
32FF/	.	.	.	.
32AAA/	.	.	.	.
32FF/	.	.	.	.
32AAA/	8r	.	.	.
32FF/	.	.	.	.
32AAA/	.	.	.	.
32FF/	.	.	.	.
!	!LO:TUP:b:problem:klamra łukowa	!	!	!
32AAA/	24d#X/LL	.	.	.
32FF/	.	.	.	.
.	24c/	.	.	.
32AAA/	.	.	.	.
.	24d#/JJ	.	.	.
32FF/JJJ	.	.	.	.
*Xtremlolo	*	*	*	*
=111	=111	=111	=111	=111
8AAA/	8c/	.	(2aa 2aT\	.
8r	8r	.	.	.
8AA 8EE 8AAA/	8aa 8ee 8cc 8a\	.	.	.
8r	8r	.	.	.
.	.	.	16qqgg#X/LL	.
.	.	.	16qqaa/JJ)	.
=112	=112	=112	=112	=112
8AAA 8AAAA/	8aaa 8eee 8ccc 8aa\	.	8ddd 8aa\	.
8r	8r	.	8r	.
4r;	4r;	.	4r;	.
==	==	==	==	==
*-	*-	*-	*-	*-
!!!system-decoration: s1{(s2,s3)}
!!!RDF**kern: > = above
!!!RDF**kern: < = below
!!!filter-modern: autostem -r | shed -e "s/TUP/tup/L; s/^(X)?tuplet/$1TUPLET/I" | shed -e "s/TX(.*):t=P:/tx$1:t=P:/LG" | shed -e "s/LO:DY:(a|b|rj)/LO:dy:$1/L" | modori -m
!!!ENC: Mateusz Solarz
!!!END: 2022-05-11
!!!ENC: Marta Lawrence
!!!END: 2022-05-22
!!!ENC-modern: Leszek Kubiak
!!!END-modern: 2022-07-20
!!!YEC: Copyright 2022 Narodowy Instytut Fryderyka Chopina (https://polishscores.org)
!!!YEM: Licence CC BY 4.0 (https://creativecommons.org/licenses/by/4.0)
